packages/kaspersky-hexa-ui-icons/src/iconsSVGs/24/IPhone.svg

<svg width="24" height="24" viewBox="0 0 24 24" fill="none" xmlns="http://www.w3.org/2000/svg">
<path fill-rule="evenodd" clip-rule="evenodd" d="M8 2C6.34315 2 5 3.34315 5 5V19C5 20.6569 6.34315 22 8 22H16C17.6569 22 19 20.6569 19 19V5C19 3.34315 17.6569 2 16 2H8ZM7 5C7 4.44772 7.44772 4 8 4H9V5.5C9 5.77614 9.22386 6 9.5 6H14.5C14.7761 6 15 5.77614 15 5.5V4H16C16.5523 4 17 4.44772 17 5V19C17 19.5523 16.5523 20 16 20H8C7.44772 20 7 19.5523 7 19V5Z" fill="black"/>
</svg>

<svg xmlns="http://www.w3.org/2000/svg" width="24" height="24" fill="none" viewBox="0 0 24 24"><path fill="#000" fill-rule="evenodd" d="M8 2C6.3431 2 5 3.3432 5 5v14c0 1.6569 1.3431 3 3 3h8c1.6569 0 3-1.3431 3-3V5c0-1.6568-1.3431-3-3-3zM7 5c0-.5523.4477-1 1-1h1v1.5a.5.5 0 0 0 .5.5h5a.5.5 0 0 0 .5-.5V4h1c.5523 0 1 .4477 1 1v14c0 .5523-.4477 1-1 1H8c-.5523 0-1-.4477-1-1z"/></svg>
